icon-themes/sifr_svg/cmd/lc_sectionshrink.svg

<svg viewBox="0 0 24 24" xmlns="http://www.w3.org/2000/svg"><path d="m11 1v5l-1.3-1.6875c-.17155-.18267-.44311-.3125-.7-.3125h-1v.4.6c0 .3.1.55232.3.75.7 1.024166 1.8 2.225838 2.7 3.25h2l2.71875-3.25c.19095-.19768.28125-.45.28125-.75v-.6-.4h-1c-.25689 0-.52846.12983-.7.3125l-1.3 1.6875v-5zm-8 10v2h17v-2zm8 4c-.9 1.024162-2 2.225834-2.7 3.25-.2.19768-.3.45-.3.75v.6.4h1c.25689 0 .52845-.12983.71875-.3l1.28125-1.7v5h2v-5l1.3 1.7c.17154.17017.44311.3.7.3h1v-.4-.6c0-.3-.1-.55232-.28125-.75l-2.6875-3.25z" fill="#555753"/></svg>

<svg xmlns="http://www.w3.org/2000/svg" viewBox="0 0 24 24">
  <path
     style="fill:#555753"
     d="M 11 1 L 11 6 L 9.7 4.3125 C 9.52845 4.12983 9.25689 4 9 4 L 8 4 L 8 4.4 L 8 5 C 8 5.3 8.1 5.55232 8.3 5.75 C 9 6.774166 10.1 7.975838 11 9 L 13 9 L 15.71875 5.75 C 15.9097 5.55232 16 5.3 16 5 L 16 4.4 L 16 4 L 15 4 C 14.74311 4 14.47154 4.12983 14.3 4.3125 L 13 6 L 13 1 L 11 1 z M 3 11 L 3 13 L 20 13 L 20 11 L 3 11 z M 11 15 C 10.1 16.024162 9 17.225834 8.3 18.25 C 8.1 18.44768 8 18.7 8 19 L 8 19.6 L 8 20 L 9 20 C 9.25689 20 9.52845 19.87017 9.71875 19.7 L 11 18 L 11 23 L 13 23 L 13 18 L 14.3 19.7 C 14.47154 19.87017 14.74311 20 15 20 L 16 20 L 16 19.6 L 16 19 C 16 18.7 15.9 18.44768 15.71875 18.25 L 13.03125 15 L 11 15 z "
     />
</svg>
